dist/img/iconFile.svg

<svg width="20" height="20" viewBox="0 0 20 20" fill="none" xmlns="http://www.w3.org/2000/svg">
<path d="M18 12.9531V1.79688C18 1.35527 17.594 1 17.0893 1H4.64286C2.6317 1 1 2.42773 1 4.1875V14.8125C1 16.5723 2.6317 18 4.64286 18H17.0893C17.594 18 18 17.6447 18 17.2031V16.6719C18 16.4229 17.8672 16.1971 17.6623 16.051C17.5029 15.5396 17.5029 14.082 17.6623 13.5707C17.8672 13.4279 18 13.2021 18 12.9531ZM5.85714 5.44922C5.85714 5.33965 5.9596 5.25 6.08482 5.25H14.1295C14.2547 5.25 14.3571 5.33965 14.3571 5.44922V6.11328C14.3571 6.22285 14.2547 6.3125 14.1295 6.3125H6.08482C5.9596 6.3125 5.85714 6.22285 5.85714 6.11328V5.44922ZM5.85714 7.57422C5.85714 7.46465 5.9596 7.375 6.08482 7.375H14.1295C14.2547 7.375 14.3571 7.46465 14.3571 7.57422V8.23828C14.3571 8.34785 14.2547 8.4375 14.1295 8.4375H6.08482C5.9596 8.4375 5.85714 8.34785 5.85714 8.23828V7.57422ZM15.4728 15.875H4.64286C3.97121 15.875 3.42857 15.4002 3.42857 14.8125C3.42857 14.2281 3.975 13.75 4.64286 13.75H15.4728C15.4007 14.3178 15.4007 15.3072 15.4728 15.875Z" fill="#353535"/>
</svg>

<svg width="20" height="20" viewBox="0 0 20 20" fill="none" xmlns="http://www.w3.org/2000/svg"><path d="M18 12.953V1.797c0-.442-.406-.797-.91-.797H4.642C2.632 1 1 2.428 1 4.188v10.625C1 16.573 2.632 18 4.643 18h12.446c.505 0 .911-.355.911-.797v-.531a.77.77 0 00-.338-.621c-.16-.511-.16-1.969 0-2.48a.759.759 0 00.338-.618zM5.857 5.45c0-.11.103-.199.228-.199h8.044c.126 0 .228.09.228.2v.663c0 .11-.102.2-.227.2H6.085c-.125 0-.228-.09-.228-.2V5.45zm0 2.125c0-.11.103-.199.228-.199h8.044c.126 0 .228.09.228.2v.663c0 .11-.102.2-.227.2H6.085c-.125 0-.228-.09-.228-.2v-.664zm9.616 8.301H4.643c-.672 0-1.214-.475-1.214-1.063 0-.584.546-1.062 1.214-1.062h10.83a10.465 10.465 0 000 2.125z" fill="#353535"/></svg>
